icons/endocrinology.svg

<svg width="48" height="48" viewBox="0 0 48 48" fill="none" xmlns="http://www.w3.org/2000/svg">
<path d="M23 34C23.5523 34 24 32.8807 24 31.5C24 32.8807 24.4477 34 25 34C25.5523 34 26 32.8807 26 31.5C26 30.1193 25.5523 29 25 29C24.4477 29 24 30.1193 24 31.5C24 30.1193 23.5523 29 23 29C22.4477 29 22 30.1193 22 31.5C22 32.8807 22.4477 34 23 34Z" fill="black"/>
<path fill-rule="evenodd" clip-rule="evenodd" d="M6 39C6 40.6569 7.34315 42 9 42H39C40.6569 42 42 40.6569 42 39V9C42 7.34315 40.6569 6 39 6H9C7.34315 6 6 7.34315 6 9V39ZM40 9C40 8.44771 39.5523 8 39 8H9C8.44771 8 8 8.44772 8 9V39C8 39.5523 8.44772 40 9 40L9 37.6335C9.05556 35.594 9.95669 33.656 11.5106 32.234C13.054 30.8216 15.1197 30.0297 17.2709 30.0243H18.8732V24.4539C17.4628 23.4175 16.4315 21.9922 15.9236 20.3772C15.4156 18.7622 15.4563 17.0381 16.0399 15.4459C16.6236 13.8537 17.7211 12.473 19.179 11.4966C20.6369 10.5202 22.3825 9.99696 24.1717 10C26.0206 10.0135 27.8167 10.5822 29.2984 11.6234C30.7801 12.6646 31.87 14.124 32.4094 15.7888C32.5835 16.4078 32.7769 18.2282 32.7769 18.2282C33.0863 19.0109 33.415 19.7755 33.7437 20.5401L34.2078 21.6505C34.3799 21.9492 34.4971 22.2731 34.5547 22.6085L34.5559 22.6153L34.556 22.6164C34.5682 22.8404 34.4922 23.0607 34.3425 23.2351C34.1926 23.4099 33.9793 23.5263 33.7437 23.5619C33.7279 23.5619 33.679 23.5665 33.6111 23.5728C33.3469 23.5974 32.7962 23.6488 32.7962 23.5619V25.6553C32.7911 26.5019 32.4303 27.3122 31.7926 27.9091C31.7088 27.9874 31.6212 28.0613 31.5302 28.1305C31.1294 28.4349 30.6617 28.6488 30.1636 28.7578L30.1387 28.7632C29.8958 28.8145 29.6458 28.841 29.3929 28.841H28.8571V30.0243H30.1387C30.7446 30.0362 31.3463 30.1053 31.9347 30.2298C32.5086 30.3512 33.0699 30.5253 33.6105 30.7504C34.7054 31.2063 35.6933 31.862 36.517 32.6798C37.3408 33.4976 37.984 34.4611 38.4094 35.5145C38.8348 36.568 39.0339 37.6904 38.9953 38.8168V40H39C39.5523 40 40 39.5523 40 39V9ZM24 35C23.4477 35 23 35.4477 23 36V40H11V37.6629C11.0469 36.1939 11.699 34.7727 12.8608 33.7095C14.0332 32.6367 15.6285 32.0201 17.3101 32.0243H18.8732C19.9778 32.0243 20.8732 31.1288 20.8732 30.0243V24.4539C20.8732 23.8175 20.5703 23.2191 20.0575 22.8422C18.9772 22.0485 18.2073 20.9722 17.8314 19.7771C17.4561 18.5839 17.4857 17.3128 17.9178 16.1343C18.3505 14.9538 19.1724 13.9081 20.2919 13.1583C21.4113 12.4087 22.7646 11.9987 24.1627 12C25.6122 12.0117 27.0084 12.4586 28.1485 13.2598C29.2745 14.0511 30.0858 15.1409 30.4918 16.3596C30.5339 16.5304 30.6052 16.9678 30.6755 17.5017C30.7088 17.7546 30.7371 17.9905 30.7572 18.1638C30.7671 18.2501 30.775 18.3202 30.7803 18.3682L30.7863 18.4227L30.788 18.439C30.8071 18.6187 30.8505 18.7954 30.9169 18.9633C31.2372 19.7738 31.5758 20.5613 31.9011 21.3178L31.9023 21.3207L32.0614 21.7012C31.3204 21.9941 30.7962 22.7168 30.7962 23.5619V25.6477C30.7933 25.9244 30.6756 26.2151 30.4258 26.4489C30.1706 26.6878 29.8011 26.841 29.3928 26.841H28.8571C27.7526 26.841 26.8571 27.7365 26.8571 28.841V30.0243C26.8571 31.1288 27.7526 32.0243 28.8571 32.0243H30.118C31.0603 32.0451 31.9862 32.2405 32.8418 32.5968C33.7029 32.9553 34.4721 33.4679 35.108 34.0992C35.7436 34.7302 36.2332 35.4669 36.5549 36.2634C36.8764 37.0596 37.0254 37.9037 36.9965 38.7482C36.9957 38.771 36.9953 38.7939 36.9953 38.8168V40H25V36C25 35.4477 24.5523 35 24 35Z" fill="black"/>
</svg>

<svg
  xmlns="http://www.w3.org/2000/svg"
  width="24"
  height="24"
  viewBox="0 0 24 24"
  fill="none"
  stroke="currentColor"
  stroke-width="2"
  stroke-linecap="round"
  stroke-linejoin="round"
>
  <path d="M23 34c.552 0 1-1.12 1-2.5 0 1.38.448 2.5 1 2.5s1-1.12 1-2.5-.448-2.5-1-2.5-1 1.12-1 2.5c0-1.38-.448-2.5-1-2.5s-1 1.12-1 2.5.448 2.5 1 2.5" />
  <path
    fill-rule="evenodd"
    d="M6 39a3 3 0 0 0 3 3h30a3 3 0 0 0 3-3V9a3 3 0 0 0-3-3H9a3 3 0 0 0-3 3zM40 9a1 1 0 0 0-1-1H9a1 1 0 0 0-1 1v30a1 1 0 0 0 1 1v-2.367c.056-2.039.957-3.977 2.51-5.399 1.544-1.412 3.61-2.204 5.76-2.21h1.603v-5.57c-1.41-1.037-2.442-2.462-2.95-4.077a7.63 7.63 0 0 1 .117-4.931c.584-1.592 1.681-2.973 3.139-3.95A8.96 8.96 0 0 1 24.172 10a9.04 9.04 0 0 1 5.126 1.623c1.482 1.042 2.572 2.501 3.111 4.166.175.619.368 2.44.368 2.44.31.782.638 1.547.967 2.311l.464 1.11c.172.3.29.623.347.959v.006l.001.001a.88.88 0 0 1-.213.62.98.98 0 0 1-.6.326c-.015 0-.064.005-.132.01-.264.025-.815.077-.815-.01v2.093a3.11 3.11 0 0 1-1.003 2.254 3.495 3.495 0 0 1-1.629.849l-.025.005a3.6 3.6 0 0 1-.746.078h-.536v1.183h1.282a9.6 9.6 0 0 1 3.472.726 9.1 9.1 0 0 1 2.906 1.93 8.5 8.5 0 0 1 1.892 2.834 8.1 8.1 0 0 1 .586 3.303V40H39a1 1 0 0 0 1-1zM24 35a1 1 0 0 0-1 1v4H11v-2.337c.047-1.47.699-2.89 1.86-3.953 1.173-1.073 2.769-1.69 4.45-1.686h1.563a2 2 0 0 0 2-2v-5.57a2 2 0 0 0-.816-1.612c-1.08-.793-1.85-1.87-2.226-3.065a5.63 5.63 0 0 1 .087-3.643c.433-1.18 1.254-2.226 2.374-2.976A6.96 6.96 0 0 1 24.162 12a7.04 7.04 0 0 1 3.986 1.26c1.127.791 1.938 1.88 2.344 3.1.042.17.113.608.183 1.142a44 44 0 0 1 .105.866l.006.055.002.016q.03.271.129.524c.32.81.659 1.598.984 2.355l.001.003.16.38a2 2 0 0 0-1.266 1.86v2.087c-.003.276-.12.567-.37.8a1.52 1.52 0 0 1-1.033.393h-.536a2 2 0 0 0-2 2v1.183a2 2 0 0 0 2 2h1.261c.942.021 1.868.216 2.724.573a7.1 7.1 0 0 1 2.266 1.502 6.5 6.5 0 0 1 1.447 2.164 6.1 6.1 0 0 1 .44 2.554V40H25v-4a1 1 0 0 0-1-1"
    clip-rule="evenodd"
  />
</svg>
